!!!COM:	Du Fay, Guillaume
!!!CDT:	~1397/08/05/-1474/11/27
!!!OPR:	Missa Se la face ay pale
!!!ONM:	5
!!!OTL:	Agnus Dei
!!!AGN:	Mass; Agnus Dei
!!!SCT:	Duf1005e
!!!SCA:	Duf1005e
!!!voices:	4
!!!voices-OPR:	4
!!midi-transpose: -2
**kern	**text	**kern	**text	**kern	**text	**kern	**text
*staff4	*staff4	*staff3	*staff3	*staff2	*staff2	*staff1	*staff1
*Ivox	*	*Ivox	*	*Ivox	*	*Ivox	*
*I"Bassus	*	*I"Tenor	*	*I"Contratenor	*	*I"Cantus	*
*I'B	*	*I'T	*	*I'Ct	*	*I'Cn	*
*>[A,B,C]	*>[A,B,C]	*>[A,B,C]	*>[A,B,C]	*>[A,B,C]	*>[A,B,C]	*>[A,B,C]	*>[A,B,C]
*>A	*>A	*>A	*>A	*>A	*>A	*>A	*>A
*clefF4	*	*clefGv2	*	*clefGv2	*	*clefG2	*
*k[]	*	*k[]	*	*k[]	*	*k[]	*
*M3/1	*	*M3/1	*	*M3/1	*	*M3/1	*
*met(O)	*	*met(O)	*	*met(O)	*	*met(O)	*
*MM384	*MM384	*MM384	*MM384	*MM384	*MM384	*MM384	*MM384
!!section: Agnus Dei I
!!!OMD: Agnus Dei I
=1-	=1-	=1-	=1-	=1-	=1-	=1-	=1-
0.r	.	0.r	.	0.c	A-	1.cc	A-
.	.	.	.	.	.	2b\	.
.	.	.	.	.	.	1a	.
=2	=2	=2	=2	=2	=2	=2	=2
0.r	.	0.r	.	1.c	.	1g	.
.	.	.	.	.	.	1.cc	.
.	.	.	.	2B\	.	.	.
.	.	.	.	1A	.	.	.
.	.	.	.	.	.	2b\	.
=3	=3	=3	=3	=3	=3	=3	=3
0.r	.	0.r	.	1G	.	1b	.
.	.	.	.	0c	.	2a/	.
.	.	.	.	.	.	2g/	.
.	.	.	.	.	.	1e	.
=4	=4	=4	=4	=4	=4	=4	=4
0.r	.	0.r	.	0B	-gnus	1d	-gnus
.	.	.	.	.	.	1r	.
.	.	.	.	1r	.	[1g	de-
=5	=5	=5	=5	=5	=5	=5	=5
0.r	.	0.r	.	1.c	de-	1g]	.
.	.	.	.	.	.	1a	.
.	.	.	.	2d\	.	.	.
.	.	.	.	1e	.	2g/	.
.	.	.	.	.	.	2cc\	.
=6	=6	=6	=6	=6	=6	=6	=6
0.r	.	0.r	.	2f\	.	2dd\	.
.	.	.	.	2g\	.	2.ee\	.
.	.	.	.	2c\	.	.	.
.	.	.	.	.	.	4cc\	.
.	.	.	.	2e\	.	1cc	.
.	.	.	.	1d	.	.	.
.	.	.	.	.	.	2b\	.
=7	=7	=7	=7	=7	=7	=7	=7
0c	Qui	[0.c	Ag-	1c	-i,	1cc	-i,
.	.	.	.	1.e	qui	1r	.
1A	.	.	.	.	.	[1cc	qui
.	.	.	.	2d\	.	.	.
=8	=8	=8	=8	=8	=8	=8	=8
0F	tol-	1c]	.	1.f	tol-	2cc\]	.
.	.	.	.	.	.	2.a/	tol-
.	.	0c	-nus	.	.	.	.
.	.	.	.	.	.	4g/	.
.	.	.	.	2e\	.	2a/	.
1A	.	.	.	1c	.	2e/	.
.	.	.	.	.	.	2f/	.
=9	=9	=9	=9	=9	=9	=9	=9
1G	-lis,	[0.B	de-	1d	-lis,	[0.g	-lis,
0E	.	.	.	0e	.	.	.
=10	=10	=10	=10	=10	=10	=10	=10
1G	qui	1B]	.	1e	qui	1g]	.
1F	.	0A	-i	1.f	.	1a	qui
1D	.	.	.	.	.	1f	.
.	.	.	.	2d\	.	.	.
=11	=11	=11	=11	=11	=11	=11	=11
1C	tol-	1c	qui	1e	tol-	1.g	tol-
0G	.	1d	tol-	1d	.	.	.
.	.	.	.	.	.	2a/	.
.	.	[1e	.	1g	.	1b	.
=12	=12	=12	=12	=12	=12	=12	=12
1A	-lis	1e]	.	0c	-lis	1.cc	-lis
1F	.	0f	.	.	.	.	.
.	.	.	.	.	.	2a/	.
2A\	.	.	.	1r	.	2cc\	.
2B\	.	.	.	.	.	2b\	.
=13	=13	=13	=13	=13	=13	=13	=13
0c	.	0e	-lis	[0.g	pec-	1g	.
.	.	.	.	.	.	1cc	pec-
1G	pec-	[1d	.	.	.	1dd	.
=14	=14	=14	=14	=14	=14	=14	=14
0G	-ca-	0.d]	.	0g]	.	1.b	-ca-
.	.	.	.	.	.	2cc\	.
1G	.	.	.	1g	-ca-	2b\	.
.	.	.	.	.	.	2a/	.
=15	=15	=15	=15	=15	=15	=15	=15
1.C	.	0c	pec-	0.e	-ta,	0cc	-ta,
2D\	.	.	.	.	.	.	.
1E	.	1G	.	.	.	1b	pec-
=16	=16	=16	=16	=16	=16	=16	=16
2F\	.	0A	-ca-	0.r	.	2.a/	-ca-
2D\	.	.	.	.	.	.	.
.	.	.	.	.	.	4g/	.
2C/	.	.	.	.	.	2e/	.
2F\	.	.	.	.	.	2f/	.
1G	-ta	1B	.	.	.	4e/	.
.	.	.	.	.	.	2e/	.
.	.	.	.	.	.	4d/	.
=17	=17	=17	=17	=17	=17	=17	=17
0.F	mun-	[0.c	-ta	1r	.	1f	-ta
.	.	.	.	0f	mun-	1r	.
.	.	.	.	.	.	1a	mun-
=18	=18	=18	=18	=18	=18	=18	=18
0.C	-di,	1c]	.	1.e	.	1g	.
.	.	1r	.	.	.	1.cc	.
.	.	.	.	2f\	.	.	.
.	.	1r	.	1g	.	.	.
.	.	.	.	.	.	2dd\	.
=19	=19	=19	=19	=19	=19	=19	=19
0.r	.	[0.g	mun-	0.c	.	1.ee	.
.	.	.	.	.	.	2dd\	.
.	.	.	.	.	.	1cc	.
=20	=20	=20	=20	=20	=20	=20	=20
0.r	.	1g]	.	0.G	-di,	0.b	-di,
.	.	0g	-di,	.	.	.	.
=21	=21	=21	=21	=21	=21	=21	=21
1C	pec-	[0.c	.	1G	pec-	0.r	.
1F	-ca-	.	.	1A	-ca-	.	.
1E	-ta	.	.	[1G	-ta	.	.
=22	=22	=22	=22	=22	=22	=22	=22
1C	mun-	1c]	.	1G]	.	0.r	.
1.G	.	0B	mun-	2r	.	.	.
.	.	.	.	1E	mun-	.	.
2F\	.	.	.	2F/	.	.	.
=23	=23	=23	=23	=23	=23	=23	=23
1E	.	1c	.	2G/	.	0.r	.
.	.	.	.	2A/	.	.	.
1D	-di,	1d	.	1B	.	.	.
1C	.	1e	.	1c	.	.	.
=24	=24	=24	=24	=24	=24	=24	=24
1r	.	1f	.	1d	.	0.r	.
0G	mun-	0d	.	1.B	.	.	.
.	.	.	.	2G/	.	.	.
=25	=25	=25	=25	=25	=25	=25	=25
0.C	-di,	[0.c	-di,	0.G	-di,	1.e	mi-
.	.	.	.	.	.	2f/	.
.	.	.	.	.	.	1g	-se-
=26	=26	=26	=26	=26	=26	=26	=26
0.F	.	1c]	.	1r	.	1a	-re-
.	.	1r	.	2A/	mi-	1f	.
.	.	.	.	2B\	-se-	.	.
.	.	1r	.	1c	-re-	2a/	.
.	.	.	.	.	.	2b\	.
=27	=27	=27	=27	=27	=27	=27	=27
1r	.	0a	mi-	0F	-re	1cc	-re
1r	.	.	.	.	.	2.f/	no-
.	.	.	.	.	.	4e/	.
1F	mi-	1a	-se-	2.f\	no-	4d/	.
.	.	.	.	.	.	4c/	.
.	.	.	.	.	.	2c/	.
.	.	.	.	4e\	.	.	.
=28	=28	=28	=28	=28	=28	=28	=28
0F	-se-	0a	-re-	4d\	.	2.f/	.
.	.	.	.	4c\	.	.	.
.	.	.	.	2c\	.	.	.
.	.	.	.	.	.	4e/	.
.	.	.	.	2.f\	.	1c	-bis,
.	.	.	.	4e\	.	.	.
2A\	-re-	1a	-re	2c\	.	1r	.
2B\	.	.	.	2d\	.	.	.
=29	=29	=29	=29	=29	=29	=29	=29
0c	-re,	[0.g	.	0e	-bis,	0.cc	mi-
1c	mi-	.	.	1e	mi-	.	.
=30	=30	=30	=30	=30	=30	=30	=30
1G	-se-	1g]	.	2d\	-se-	1b	-se-
.	.	.	.	1e	.	.	.
0A	-re-	1r	.	.	.	2a/	.
.	.	.	.	2f\	.	1cc	.
.	.	1c	no-	2e\	.	.	.
.	.	.	.	2f\	.	2dd\	.
=31	=31	=31	=31	=31	=31	=31	=31
0G	.	1d	.	0g	-re-	0b	-re-
.	.	1e	.	.	.	.	.
[1F	-re	[1f	.	1c	-re	1a	-re
=32	=32	=32	=32	=32	=32	=32	=32
1F]	.	1f]	.	1r	.	1.a	no-
0B-	no-	0d	.	1r	.	.	.
.	.	.	.	.	.	2g/	.
.	.	.	.	1d	no-	2g/	.
.	.	.	.	.	.	2f/	.
=33	=33	=33	=33	=33	=33	=33	=33
1A	.	0c	-bis,	1e	.	1.a	.
2F\	.	.	.	2a\	.	.	.
2G\	.	.	.	2g\	.	2b\	.
1A	.	1r	.	2.f\	.	1cc	.
.	.	.	.	4e\	.	.	.
=34	=34	=34	=34	=34	=34	=34	=34
0.G	.	1r	.	0.g	.	1dd	.
.	.	0d	no-	.	.	1.b	.
.	.	.	.	.	.	2g/	.
=35	=35	=35	=35	=35	=35	=35	=35
[0.C	-bis,	0c	-bis,	0.e	.	0.g	-bis,
.	.	[1G	.	.	.	.	.
=36	=36	=36	=36	=36	=36	=36	=36
0.C]	.	1G]	.	0.c	.	0.e	.
.	.	1g	mi-	.	.	.	.
.	.	1g	-se-	.	.	.	.
=37	=37	=37	=37	=37	=37	=37	=37
0.r	.	1g	-re-	1.e	-bis,	1c	.
.	.	1g	-re	.	.	2r	.
.	.	.	.	2f\	.	1cc	mi-
.	.	[1c	.	1g	.	.	.
.	.	.	.	.	.	2b\	-se-
=38	=38	=38	=38	=38	=38	=38	=38
1F	mi-	1c]	.	1r	.	1a	-re-
1E	.	1r	.	1G	mi-	1g	.
1D	-se-	1d	no-	1A	.	2f/	.
.	.	.	.	.	.	[2a/	.
=39	=39	=39	=39	=39	=39	=39	=39
2F\	-re-	0c	.	1A	-se-	2a/]	.
2E\	.	.	.	.	.	2g/	.
1C	.	.	.	1G	.	1e	.
1G	-re,	[1B-	.	2g\	-re-	1d	.
.	.	.	.	2f\	.	.	.
=40	=40	=40	=40	=40	=40	=40	=40
1r	.	1B-]	.	1d	.	1g	.
1.c	mi-	0A	.	1e	.	2a/	.
.	.	.	.	.	.	2e/	.
.	.	.	.	1c	.	2.f#i/	.
2A\	-se-	.	.	.	.	.	.
.	.	.	.	.	.	4e/	.
=41	=41	=41	=41	=41	=41	=41	=41
2B\	-re-	0G	-bis,	1d	-re	1g	-re
2c\	.	.	.	.	.	.	.
1d	.	.	.	1B	.	2.g/	no-
.	.	.	.	.	.	4f/	.
1B	-re	1r	.	1G	.	4e/	.
.	.	.	.	.	.	4d/	.
.	.	.	.	.	.	2d/	.
=42	=42	=42	=42	=42	=42	=42	=42
1c	no-	0.r	.	2g\	no-	2e/	.
.	.	.	.	2e\	.	1c	.
2A\	.	.	.	4f\	.	.	.
.	.	.	.	4e\	.	.	.
2F\	.	.	.	4d\	.	1f	.
.	.	.	.	4c\	.	.	.
1G	.	.	.	2.B\	.	.	.
.	.	.	.	.	.	2e/	.
.	.	.	.	4A/	.	.	.
=43	=43	=43	=43	=43	=43	=43	=43
0.Fl	-bis.	1.A	no-	0.cl	-bis.	0.fl	-bis.
.	.	2B\	.	.	.	.	.
.	.	1cl	-bis.	.	.	.	.
!!LO:LB:i:g=z
=44||	=44||	=44||	=44||	=44||	=44||	=44||	=44||
*>B	*>B	*>B	*>B	*>B	*>B	*>B	*>B
*clefF4	*	*clefGv2	*	*clefGv2	*	*clefG2	*
*k[]	*	*k[]	*	*k[]	*	*k[]	*
*M2/1	*	*M2/1	*	*M2/1	*	*M2/1	*
*met(C)	*	*met(C)	*	*met(C)	*	*met(C)	*
*MM420	*MM420	*MM420	*MM420	*MM420	*MM420	*MM420	*MM420
!!section: Agnus Dei II
!!!OMD: Agnus Dei II
0r	.	0r	.	[0f	A-	[0cc	A-
=45.	=45.	=45.	=45.	=45.	=45.	=45.	=45.
0r	.	0r	.	0f]	.	1cc]	.
.	.	.	.	.	.	[1a	.
=46.	=46.	=46.	=46.	=46.	=46.	=46.	=46.
0r	.	0r	.	0c	.	2a/]	.
.	.	.	.	.	.	2g/	.
.	.	.	.	.	.	2g/	.
.	.	.	.	.	.	2e/	.
=47	=47	=47	=47	=47	=47	=47	=47
0r	.	0r	.	1d	-gnus	1f	-gnus
.	.	.	.	1c	.	[1e	.
=48.	=48.	=48.	=48.	=48.	=48.	=48.	=48.
0r	.	0r	.	0A	de-	1e]	.
.	.	.	.	.	.	1c	de-
=49.	=49.	=49.	=49.	=49.	=49.	=49.	=49.
0r	.	0r	.	1B	.	1d	.
.	.	.	.	[1c	.	1e	.
=50	=50	=50	=50	=50	=50	=50	=50
0r	.	0r	.	0c]	.	1c	.
.	.	.	.	.	.	[1cc	.
=51.	=51.	=51.	=51.	=51.	=51.	=51.	=51.
0r	.	0r	.	0F	.	2cc\]	.
.	.	.	.	.	.	2b\	.
.	.	.	.	.	.	2a/	.
.	.	.	.	.	.	2g/	.
=52.	=52.	=52.	=52.	=52.	=52.	=52.	=52.
0r	.	0r	.	0G	.	1b	-i,
.	.	.	.	.	.	1g	.
=53	=53	=53	=53	=53	=53	=53	=53
0r	.	0r	.	0E	-i,	1r	.
.	.	.	.	.	.	1g	de-
=54.	=54.	=54.	=54.	=54.	=54.	=54.	=54.
0r	.	0r	.	1c	de-	1e	.
.	.	.	.	2A/	.	2f/	.
.	.	.	.	2B\	.	[2g/	.
=55.	=55.	=55.	=55.	=55.	=55.	=55.	=55.
0r	.	0r	.	1c	.	2g/]	.
.	.	.	.	.	.	2c/	.
.	.	.	.	2B\	.	2d/	.
.	.	.	.	[2c\	.	2e/	.
=56	=56	=56	=56	=56	=56	=56	=56
0r	.	0r	.	2c\]	.	1c	-i,
.	.	.	.	2e\	.	.	.
.	.	.	.	1d	.	2r	.
.	.	.	.	.	.	2f/	de-
=57.	=57.	=57.	=57.	=57.	=57.	=57.	=57.
0r	.	0r	.	2c\	.	2e/	.
.	.	.	.	2A/	.	2f/	.
.	.	.	.	1B	.	4g/	.
.	.	.	.	.	.	4f/	.
.	.	.	.	.	.	4e/	.
.	.	.	.	.	.	4d/	.
=58.	=58.	=58.	=58.	=58.	=58.	=58.	=58.
0r	.	0r	.	2A/	.	1c	-i,
.	.	.	.	1c	.	.	.
.	.	.	.	.	.	1r	.
.	.	.	.	[2F/	-i,	.	.
=59	=59	=59	=59	=59	=59	=59	=59
0r	.	0r	.	2F/]	.	1f	qui
.	.	.	.	2F/	qui	.	.
.	.	.	.	2E/	tol-	2g/	tol-
.	.	.	.	2F/	.	2a/	.
=60.	=60.	=60.	=60.	=60.	=60.	=60.	=60.
0r	.	0r	.	1G	.	2b-i\	.
.	.	.	.	.	.	1g	.
.	.	.	.	2E/	.	.	.
.	.	.	.	[2F/	.	2f/	.
=61.	=61.	=61.	=61.	=61.	=61.	=61.	=61.
0r	.	0r	.	2F/]	.	1a	.
.	.	.	.	2c\	.	.	.
.	.	.	.	2d\	.	2bni\	.
.	.	.	.	2e\	.	[2cc\	.
=62	=62	=62	=62	=62	=62	=62	=62
0r	.	0r	.	1f	.	4cc\]	.
.	.	.	.	.	.	4b\	.
.	.	.	.	.	.	2a/	.
.	.	.	.	2e\	.	2g/	.
.	.	.	.	[2d\	.	2f/	.
=63.	=63.	=63.	=63.	=63.	=63.	=63.	=63.
0r	.	0r	.	2d\]	.	2.a/	.
.	.	.	.	1c	.	.	.
.	.	.	.	.	.	4g/	.
.	.	.	.	.	.	2e/	.
.	.	.	.	2B\	.	2d/	.
=64.	=64.	=64.	=64.	=64.	=64.	=64.	=64.
0r	.	0r	.	2c\	.	2c/	.
.	.	.	.	2A/	.	1f	.
.	.	.	.	1G	.	.	.
.	.	.	.	.	.	2e/	.
=65	=65	=65	=65	=65	=65	=65	=65
0r	.	0r	.	0F	-lis	1f	-lis
.	.	.	.	.	.	1r	.
=66.	=66.	=66.	=66.	=66.	=66.	=66.	=66.
0F	Pec-	0r	.	0r	.	1.cc	pec-
.	.	.	.	.	.	2b\	.
=67.	=67.	=67.	=67.	=67.	=67.	=67.	=67.
1.c	-ca-	0r	.	0r	.	1a	-ca-
.	.	.	.	.	.	1g	.
2B\	.	.	.	.	.	.	.
=68	=68	=68	=68	=68	=68	=68	=68
1A	.	0r	.	0r	.	1f	.
1G	.	.	.	.	.	2.e/	.
.	.	.	.	.	.	4d/	.
=69.	=69.	=69.	=69.	=69.	=69.	=69.	=69.
1F	.	0r	.	0r	.	2f/	.
.	.	.	.	.	.	2a/	.
2.E\	.	.	.	.	.	1g	.
4D\	.	.	.	.	.	.	.
=70.	=70.	=70.	=70.	=70.	=70.	=70.	=70.
2F\	.	0r	.	0r	.	1f	.
2A\	.	.	.	.	.	.	.
1G	.	.	.	.	.	1b-	.
=71	=71	=71	=71	=71	=71	=71	=71
1F	.	0r	.	0r	.	2a/	.
.	.	.	.	.	.	2f/	.
1B-	.	.	.	.	.	1g	.
=72.	=72.	=72.	=72.	=72.	=72.	=72.	=72.
2A\	.	0r	.	0r	.	2f/	.
2F\	.	.	.	.	.	1f	.
1G	.	.	.	.	.	.	.
.	.	.	.	.	.	2e/	.
=73.	=73.	=73.	=73.	=73.	=73.	=73.	=73.
1F	-ta	0r	.	0r	.	2f/	-ta
.	.	.	.	.	.	2r	.
1r	.	.	.	.	.	2a/	mun-
.	.	.	.	.	.	2b\	.
=74	=74	=74	=74	=74	=74	=74	=74
1F	mun-	0r	.	0r	.	1cc	.
2A\	.	.	.	.	.	1f	.
2B\	.	.	.	.	.	.	.
=75.	=75.	=75.	=75.	=75.	=75.	=75.	=75.
1c	.	0r	.	0r	.	2e/	.
.	.	.	.	.	.	2c/	.
1F	.	.	.	.	.	1d	.
=76.	=76.	=76.	=76.	=76.	=76.	=76.	=76.
2E\	.	0r	.	0r	.	1c	.
2C/	.	.	.	.	.	.	.
1D	.	.	.	.	.	1f	.
=77	=77	=77	=77	=77	=77	=77	=77
1C	.	0r	.	0r	.	2e/	.
.	.	.	.	.	.	1c	.
1F	.	.	.	.	.	.	.
.	.	.	.	.	.	2d/	.
=78.	=78.	=78.	=78.	=78.	=78.	=78.	=78.
2E\	.	0r	.	0r	.	2.e/	.
1C	.	.	.	.	.	.	.
.	.	.	.	.	.	4d/	.
.	.	.	.	.	.	2e/	.
2D\	.	.	.	.	.	2f/	.
=79.	=79.	=79.	=79.	=79.	=79.	=79.	=79.
2E\	.	0r	.	0r	.	2g/	.
2F\	.	.	.	.	.	1c	.
1D	.	.	.	.	.	.	.
.	.	.	.	.	.	2B/	.
=80	=80	=80	=80	=80	=80	=80	=80
[0C	-di,	0r	.	0r	.	0c	-di,
=81.	=81.	=81.	=81.	=81.	=81.	=81.	=81.
0C]	.	0r	.	1.c	mi-	0r	.
.	.	.	.	2d\	-se-	.	.
=82.	=82.	=82.	=82.	=82.	=82.	=82.	=82.
1C	mun-	0r	.	1e	-re-	0r	.
2D\	.	.	.	1f	.	.	.
2E\	.	.	.	.	.	.	.
=83	=83	=83	=83	=83	=83	=83	=83
0C	-di,	0r	.	1e	.	1.c	mi-
.	.	.	.	[1g	.	.	.
.	.	.	.	.	.	2d/	-se-
=84.	=84.	=84.	=84.	=84.	=84.	=84.	=84.
0r	.	0r	.	2g\]	.	1e	-re-
.	.	.	.	2f\	.	.	.
.	.	.	.	1d	.	1f	.
=85.	=85.	=85.	=85.	=85.	=85.	=85.	=85.
0r	.	0r	.	1.c	.	1e	.
.	.	.	.	.	.	[1g	.
.	.	.	.	2B\	.	.	.
=86	=86	=86	=86	=86	=86	=86	=86
0r	.	0r	.	2c\	.	2g/]	.
.	.	.	.	2d\	.	2f/	.
.	.	.	.	1B	.	1d	.
=87.	=87.	=87.	=87.	=87.	=87.	=87.	=87.
1.C	mi-	0r	.	1c	-re,	0c	-re
.	.	.	.	[1G	mi-	.	.
2D\	-se-	.	.	.	.	.	.
=88.	=88.	=88.	=88.	=88.	=88.	=88.	=88.
1E	-re-	0r	.	1G]	.	0r	.
1F	.	.	.	1A	-se-	.	.
=89	=89	=89	=89	=89	=89	=89	=89
1E	.	0r	.	2G/	-re-	0r	.
.	.	.	.	2c\	.	.	.
[1G	.	.	.	2B\	.	.	.
.	.	.	.	[2e\	.	.	.
=90.	=90.	=90.	=90.	=90.	=90.	=90.	=90.
2G\]	.	0r	.	2e\]	.	0r	.
2F\	.	.	.	4d\	.	.	.
.	.	.	.	4c\	.	.	.
1D	.	.	.	2.B\	.	.	.
.	.	.	.	4A/	.	.	.
=91.	=91.	=91.	=91.	=91.	=91.	=91.	=91.
1C	-re,	0r	.	1c	-re,	0r	.
2BB/	no-	.	.	2d\	no-	.	.
[2C/	.	.	.	[2e\	.	.	.
=92	=92	=92	=92	=92	=92	=92	=92
2C/]	.	0r	.	2e\]	.	0r	.
2D\	.	.	.	2f\	.	.	.
1BB	.	.	.	2.d\	.	.	.
.	.	.	.	4c\	.	.	.
=93.	=93.	=93.	=93.	=93.	=93.	=93.	=93.
[0C	-bis,	0r	.	1e	.	1c	no-
.	.	.	.	1c	.	1g	.
=94.	=94.	=94.	=94.	=94.	=94.	=94.	=94.
0C]	.	0r	.	1g	.	2e/	.
.	.	.	.	.	.	1c	.
.	.	.	.	2e\	.	.	.
.	.	.	.	[2c\	.	2e/	.
=95	=95	=95	=95	=95	=95	=95	=95
0r	.	0r	.	2c\]	.	2g/	.
.	.	.	.	2e\	.	1c	.
.	.	.	.	2f\	.	.	.
.	.	.	.	2g\	.	[2e/	.
=96.	=96.	=96.	=96.	=96.	=96.	=96.	=96.
0r	.	0r	.	2c\	.	2e/]	.
.	.	.	.	4B\	.	2f/	.
.	.	.	.	4A/	.	.	.
.	.	.	.	[1G	-bis,	1g	-bis,
=97.	=97.	=97.	=97.	=97.	=97.	=97.	=97.
0C	no-	0r	.	1G]	.	1r	.
.	.	.	.	1c	.	1g	no-
=98	=98	=98	=98	=98	=98	=98	=98
1.F	.	0r	.	1r	.	1.a	.
.	.	.	.	1f	no-	.	.
2G\	.	.	.	.	.	2b\	.
=99.	=99.	=99.	=99.	=99.	=99.	=99.	=99.
1A	.	0r	.	1e	.	1cc	.
1B	.	.	.	2.d\	.	1dd	.
.	.	.	.	4c\	.	.	.
=100.	=100.	=100.	=100.	=100.	=100.	=100.	=100.
0c	.	0r	.	0A	.	2ee\	.
.	.	.	.	.	.	2cc\	.
.	.	.	.	.	.	[1cc	.
=101	=101	=101	=101	=101	=101	=101	=101
0d	.	0r	.	0G	.	2cc\]	.
.	.	.	.	.	.	1b	.
.	.	.	.	.	.	2a/	.
=102.	=102.	=102.	=102.	=102.	=102.	=102.	=102.
2c\	-bis,	0r	.	1A	-bis,	1cc	-bis,
2A\	.	.	.	.	.	.	.
1B	.	.	.	1G	.	1dd	.
=103.	=103.	=103.	=103.	=103.	=103.	=103.	=103.
0c	no-	0r	.	2r	.	1g	no-
.	.	.	.	1.e	no-	.	.
.	.	.	.	.	.	2a/	.
.	.	.	.	.	.	[2cc\	.
=104	=104	=104	=104	=104	=104	=104	=104
0F	.	0r	.	2.f\	.	2cc\]	.
.	.	.	.	.	.	2b\	.
.	.	.	.	4e\	.	.	.
.	.	.	.	2c\	.	1a	.
.	.	.	.	2d\	.	.	.
=105.	=105.	=105.	=105.	=105.	=105.	=105.	=105.
1E	.	0r	.	2e\	.	1g	.
.	.	.	.	1c	.	.	.
1F	.	.	.	.	.	2f/	.
.	.	.	.	[2A/	.	[2a/	.
=106.	=106.	=106.	=106.	=106.	=106.	=106.	=106.
1D	.	0r	.	2A/]	.	4a/]	.
.	.	.	.	.	.	4g/	.
.	.	.	.	2B\	.	2f/	.
1C	.	.	.	2c\	-bis,	2e/	-bis,
.	.	.	.	2G/	.	2r	.
=107	=107	=107	=107	=107	=107	=107	=107
2BB/	.	0r	.	2r	.	2.d/	no-
2C/	.	.	.	2c\	no-	.	.
.	.	.	.	.	.	4e/	.
2D\	.	.	.	2A/	.	2f/	.
2E\	.	.	.	2G/	.	[2g/	.
=108.	=108.	=108.	=108.	=108.	=108.	=108.	=108.
1C	.	0r	.	1.c	.	2g/]	.
.	.	.	.	.	.	2.cc\	.
1F	.	.	.	.	.	.	.
.	.	.	.	.	.	4a/	.
.	.	.	.	2f\	.	[2a/	.
=109.	=109.	=109.	=109.	=109.	=109.	=109.	=109.
2A\	.	0r	.	4e\	.	2a/]	.
.	.	.	.	4c\	.	.	.
2B-i\	.	.	.	2d\	.	2g/	.
1G	.	.	.	2.B\	.	2.e/	.
.	.	.	.	4A/	.	4d/	.
=110	=110	=110	=110	=110	=110	=110	=110
0Fl	-bis.	0r	.	0cl	-bis.	0fl	-bis.
!!LO:LB:i:g=z
=111||	=111||	=111||	=111||	=111||	=111||	=111||	=111||
*>C	*>C	*>C	*>C	*>C	*>C	*>C	*>C
*clefF4	*	*clefGv2	*	*clefGv2	*	*clefG2	*
*k[]	*	*k[]	*	*k[]	*	*k[]	*
*M3/1	*	*M3/1	*	*M3/1	*	*M3/1	*
*met(O)	*	*met(O)	*	*met(O)	*	*met(O)	*
*MM384	*MM384	*MM384	*MM384	*MM384	*MM384	*MM384	*MM384
!!section: Agnus Dei III
!!!OMD: Agnus Dei III
0F	A-	[0.c	A-	0f	A-	1.cc	A-
.	.	.	.	.	.	2b\	.
1F	.	.	.	1f	.	1a	.
=112	=112	=112	=112	=112	=112	=112	=112
1C	.	1c]	.	1e	.	1.g	.
0D	.	0B	.	0d	.	.	.
.	.	.	.	.	.	1f	.
.	.	.	.	.	.	2e/	.
=113	=113	=113	=113	=113	=113	=113	=113
1C	-gnus	[0.c	-gnus	1e	-gnus	1g	-gnus
0F	de-	.	.	2c\	de-	1a	de-
.	.	.	.	2.f\	.	.	.
.	.	.	.	.	.	1f	.
.	.	.	.	4g\	.	.	.
.	.	.	.	2a\	.	.	.
=114	=114	=114	=114	=114	=114	=114	=114
1E	.	1c]	.	1g	.	1cc	.
0D	.	0d	de-	1.f	.	2b\	.
.	.	.	.	.	.	1b	.
.	.	.	.	2e\	.	2a/	.
=115	=115	=115	=115	=115	=115	=115	=115
0.C	-i,	0e	-i,	0g	-i,	0cc	-i,
.	.	[1c	.	1g	qui	1r	.
=116	=116	=116	=116	=116	=116	=116	=116
0F	qui	1c]	.	2f\	.	1.a	qui
.	.	.	.	2e\	.	.	.
.	.	0r	.	0c	.	.	.
.	.	.	.	.	.	2b\	.
1A	.	.	.	.	.	1cc	.
=117	=117	=117	=117	=117	=117	=117	=117
1G	tol-	1g	qui	1d	tol-	1b	tol-
1.c	.	1g	tol-	1e	.	1.ee	.
.	.	1e	.	[1c	.	.	.
2B\	.	.	.	.	.	2dd\	.
=118	=118	=118	=118	=118	=118	=118	=118
1A	.	1f	.	1c]	.	1cc	.
0G	-lis	0g	-lis	0d	-lis	0b	-lis
=119	=119	=119	=119	=119	=119	=119	=119
1E	pec-	1r	.	0e	pec-	1b	pec-
1C	.	1r	.	.	.	1cc	-ca-
1F	.	[1c	pec-	1f	.	1a	.
=120	=120	=120	=120	=120	=120	=120	=120
1A	-ca-	1c]	.	2e\	-ca-	1cc	.
.	.	.	.	2f\	.	.	.
0G	.	1d	-ca-	0g	.	1.b	.
.	.	1e	.	.	.	.	.
.	.	.	.	.	.	2a/	.
=121	=121	=121	=121	=121	=121	=121	=121
1F	-ta,	1f	.	1c	-ta,	1a	-ta,
0C	pec-	1e	.	1r	.	0g	pec-
.	.	1c	.	1e	pe-	.	.
=122	=122	=122	=122	=122	=122	=122	=122
1.C	-ca-	1G	.	2e\	.	1g	-ca-
.	.	.	.	1e	-ca-	.	.
.	.	1A	.	.	.	2e/	.
1.D	.	.	.	2d\	.	1f	.
.	.	1B	.	1d	.	.	.
.	.	.	.	.	.	2g/	.
=123	=123	=123	=123	=123	=123	=123	=123
0.C	-ta	1c	-ta	0.G	-ta	1e	-ta
.	.	0e	mun-	.	.	0c	.
=124	=124	=124	=124	=124	=124	=124	=124
1F	mun-	1c	.	1A	mun-	1r	.
0E	.	1g	.	1B	.	1r	.
.	.	1e	.	2.c\	.	1g	mun-
.	.	.	.	4d\	.	.	.
=125	=125	=125	=125	=125	=125	=125	=125
1C	-di,	1c	-di,	1e	-di,	1g	-di,
1r	.	1r	.	1c	.	1e	.
1C	do-	1g	do-	1r	.	1c	.
=126	=126	=126	=126	=126	=126	=126	=126
0C	-na	1e	-na	1g	do-	1r	.
.	.	1g	no-	1e	-na	1cc	do-
[1D	no-	1f	.	[1d	no-	2b\	-na
.	.	.	.	.	.	[2a/	no-
=127	=127	=127	=127	=127	=127	=127	=127
2D\]	.	0d	.	2d\]	.	2a/]	.
1D	-bis,	.	.	2A/	.	1f	.
.	.	.	.	1B-	.	.	.
2E\	.	.	.	.	.	2g/	.
1F	.	[1c	-bis,	[1A	.	2a/	.
.	.	.	.	.	.	2f/	.
=128	=128	=128	=128	=128	=128	=128	=128
2F\	no-	1c]	.	2A/]	.	2.cc\	.
2G\	.	.	.	2Bni\	.	.	.
.	.	.	.	.	.	4b\	.
1A	.	1r	.	1c	.	2a/	.
.	.	.	.	.	.	2f/	.
1B-	.	1d	pa-	1G	.	1g	.
=129	=129	=129	=129	=129	=129	=129	=129
1A	-bis	1c	.	0e	-bis	1a	-bis
1.c	pa-	0A	.	.	.	1r	.
.	.	.	.	[1e	pa-	1cc	pa-
2B\	.	.	.	.	.	.	.
=130	=130	=130	=130	=130	=130	=130	=130
1G	.	1B	.	2e\]	.	1b	.
.	.	.	.	2d\	.	.	.
0F	.	1c	.	0f	.	1a	.
.	.	1A	.	.	.	[1cc	.
=131	=131	=131	=131	=131	=131	=131	=131
[0.C	.	1G	.	1.e	.	2cc\]	.
.	.	.	.	.	.	2b\	.
.	.	0c	.	.	.	1g	.
.	.	.	.	2f\	.	.	.
.	.	.	.	1g	.	2e/	.
.	.	.	.	.	.	2f/	.
=132	=132	=132	=132	=132	=132	=132	=132
1C]	.	1e	.	1c	.	0g	-cem,
0G	-cem,	0d	.	1.B	.	.	.
.	.	.	.	.	.	1g	pa-
.	.	.	.	2A/	.	.	.
=133	=133	=133	=133	=133	=133	=133	=133
1C	pa-	[0.cl	-cem.	1c	.	2e/	.
.	.	.	.	.	.	2g/	.
2F\	.	.	.	1A	.	2a/	.
2G\	.	.	.	.	.	2b\	.
1A	.	.	.	1F	.	2cc\	.
.	.	.	.	.	.	[2a/	.
=134	=134	=134	=134	=134	=134	=134	=134
1F	.	0.c_	.	1A	.	2a/]	.
.	.	.	.	.	.	2f/	.
0C	.	.	.	0G	.	2g/	.
.	.	.	.	.	.	2d/	.
.	.	.	.	.	.	2.e/	.
.	.	.	.	.	.	4d/	.
=135	=135	=135	=135	=135	=135	=135	=135
0.Fl	-cem.	0.c]	.	1.A	.	0.fl	-cem.
.	.	.	.	2F/	.	.	.
.	.	.	.	1Fl	-cem.	.	.
==	==	==	==	==	==	==	==
*-	*-	*-	*-	*-	*-	*-	*-
!!!RDF**kern: l=long note in original notation
!!!RDF**kern: i=editorial accidental
!!!ENC:	Planchart/Rodin
!!!END:	2013/11/21/
!!!EED:	Jesse Rodin
!!!EEV:	2013/11/21/
!!!ONB:	Translated from SCORE and edited on 2013/12/06/ by Craig Sapp
!!muse2ps: T^@{OPR}^u^@{ONM}{. }@{OTL}^C^@{COM}^i2I150v85,85,85,130c140
